trunk/public/assets/images/icons/white/pause/log.svg

<svg width="16" height="16" xmlns="http://www.w3.org/2000/svg" viewBox="0 0 16 16" shape-rendering="geometricPrecision" fill="#fff"><defs><mask id="a"><rect width="100%" height="100%"/><path fill="#000" d="M13.135-1H9.585v7.956H16V-1z"/></mask></defs><g fill="#cb1800"><path d="M10.585 0h1.55v5.956h-1.55zM13.45 0H15v5.956h-1.55z"/></g><path d="M1.81 0v16h12.38V0H1.81zm2.555 9.815c-.462 0-.838-.376-.838-.84 0-.463.376-.838.838-.838.464 0 .842.375.842.838 0 .464-.378.84-.842.84zm0-2.658c-.462 0-.838-.376-.838-.844 0-.46.376-.837.838-.837.464 0 .842.376.842.837 0 .468-.378.844-.842.844zm0-2.662c-.462 0-.838-.376-.838-.838 0-.464.376-.84.838-.84.464 0 .842.376.842.84 0 .462-.378.838-.842.838zm8.11 5.117h-6.08V8.338h6.08v1.274zm0-2.658h-6.08V5.678h6.08v1.276zm0-2.66h-6.08V3.02h6.08v1.274z" mask="url(#a)"/></svg>

<?xml version="1.0"?><!DOCTYPE svg PUBLIC "-//W3C//DTD SVG 1.1//EN" "http://www.w3.org/Graphics/SVG/1.1/DTD/svg11.dtd"><svg width="16px" height="16px" xmlns="http://www.w3.org/2000/svg" viewBox="0 0 16 16" shape-rendering="geometricPrecision" fill="#fff"><defs><mask id="pause-path"><rect fill="#fff" width="100%" height="100%"/><polygon points="13.135,-1 12.45,-1 9.585,-1 9.585,6.956 12.45,6.956 13.135,6.956 16,6.956 16,-1 " fill="#000"/></mask></defs><g fill="#cb1800"><g><rect x="10.585" y="0" width="1.55" height="5.956"/></g><g><rect x="13.45" y="0" width="1.55" height="5.956"/></g></g><g mask="url(#pause-path)"><g><g><path d="M1.81-0.001v16H14.19v-16H1.81z M4.365,9.815c-0.462,0-0.838-0.376-0.838-0.84c0-0.463,0.376-0.838,0.838-0.838 c0.464,0,0.842,0.375,0.842,0.838C5.207,9.439,4.829,9.815,4.365,9.815z M4.365,7.157c-0.462,0-0.838-0.376-0.838-0.844 c0-0.461,0.376-0.837,0.838-0.837c0.464,0,0.842,0.376,0.842,0.837C5.207,6.781,4.829,7.157,4.365,7.157z M4.365,4.495 c-0.462,0-0.838-0.376-0.838-0.838c0-0.464,0.376-0.84,0.838-0.84c0.464,0,0.842,0.376,0.842,0.84 C5.207,4.119,4.829,4.495,4.365,4.495z M12.475,9.612h-6.08V8.338h6.08V9.612z M12.475,6.954h-6.08V5.678h6.08V6.954z M12.475,4.294h-6.08V3.019h6.08V4.294z"/></g></g></g></svg>
